X:57
T:Fair Daphne - Fone
%%VWML:SBG-1-2-778-0
F:http://www.vwml.org/record/SBG/1/2/778
Z:Original Sibelius transcriptions by M. & S. Graebe
L:1/4
M:3/4
I:linebreak $
K:Eb
V:1 treble nm="P1"
V:2 treble 
V:1
 z2 B, | E E G |{/F} E{/FED} E F | G G B | (A G) (3E/G/B/ | c c c | c B F/ F/ | D{/EDC} D C |$ %8
 B,2 B,/>D/ | E3/4F/8E/8D/8 E G | F E F | G B B | A G"^chorus" G | F E G | F E/4G/4B/4e/4 | %15
 E3/2 F/8E/8D/8E/8 G F |$ E2 B | c/>B/ A c | B/>c/B/4A/4 G G | F E G | F B, E/4G/4B/4e/4 | %21
 E/>F/E/4D/4 G F | E3 x/ | %23
V:2
 x3 | x3 | x2 B, | x3 | x3 | x3 | x3 | x3 |$ x3 | x25/8 | x3 | x3 | x3 | x3 | x2 | x4 |$ x3 | x3 | %18
 x2 x/ E | E B, E | x3 | x7/2 | x7/2 | %23

